src/assets/twitch.svg

<svg viewBox="0 0 512 512"><path d="M391.2 103.5h-38.7v109.7h38.6zM285 103h-38.6v109.8H285zM120.8 0 24.3 91.4v329.2h115.8V512l96.5-91.4h77.3L487.7 256V0zm328.3 237.8-77.2 73.1h-77.3l-67.6 64v-64h-86.9V36.6h309z"/></svg>

<svg viewBox="0 0 512 512"><path d="M391.2 103.5H352.5v109.7h38.6zM285 103H246.4V212.8H285zM120.8 0 24.3 91.4V420.6H140.1V512l96.5-91.4h77.3L487.7 256V0zM449.1 237.8l-77.2 73.1H294.6l-67.6 64v-64H140.1V36.6H449.1z"/></svg>
